src/assets/filled/VideoSquare.svg

<?xml version="1.0" encoding="UTF-8"?>
<svg width="24" height="24" viewBox="0 0 24 24" xmlns="http://www.w3.org/2000/svg">
 <path d="m16.19 2h-8.38c-3.64 0-5.81 2.17-5.81 5.81v8.37c0 3.65 2.17 5.82 5.81 5.82h8.37c3.64 0 5.81-2.17 5.81-5.81v-8.38c0.01-3.64-2.16-5.81-5.8-5.81zm-1.53 11.73-2.56 1.48c-1.65 0.95-3 0.17-3-1.73v-2.96c0-1.91 1.35-2.68 3-1.73l2.56 1.48c1.65 0.95 1.65 2.51 0 3.46z"/>
</svg>

<svg width="24" height="24" viewBox="0 0 24 24"  xmlns="http://www.w3.org/2000/svg">
<path d="M16.19 2H7.81C4.17 2 2 4.17 2 7.81V16.18C2 19.83 4.17 22 7.81 22H16.18C19.82 22 21.99 19.83 21.99 16.19V7.81C22 4.17 19.83 2 16.19 2ZM14.66 13.73L13.38 14.47L12.1 15.21C10.45 16.16 9.1 15.38 9.1 13.48V12V10.52C9.1 8.61 10.45 7.84 12.1 8.79L13.38 9.53L14.66 10.27C16.31 11.22 16.31 12.78 14.66 13.73Z" />
</svg>
